static/assets/template/assets/img/icons/essential/detailed/Contact.svg

<svg height="127" viewBox="0 0 149 127" width="149" xmlns="http://www.w3.org/2000/svg"><g fill="none" fill-rule="evenodd" transform="translate(1 1)"><path d="m96.2 56.6h41.5c4.9 0 8.8-4 8.8-8.8v-38c0-4.9-4-8.8-8.8-8.8h-57.2c-4.9 0-8.8 4-8.8 8.8v52.8c0 2.2 2.5 3.3 4.2 2l6.6-8h.5" fill-rule="nonzero"/><path d="m146.5 12.9v35.9c0 4.6-3.7 8.3-8.3 8.3h-56.2l-6.2 7.5c-1.6 1.3.1.2.1-1.9v-49.9c0-4.6 3.7-8.3 8.3-8.3h54c2 0 3.9.7 5.3 1.9 1.8 1.6 3 3.9 3 6.5z" fill-rule="nonzero"/><path d="m143.5 6.9v35.9c0 4.6-3.7 8.3-8.3 8.3h-56.2l-3.1 3.8v-42c0-4.6 3.7-8.3 8.3-8.3h54c2 0 3.9.7 5.3 1.9z" fill-rule="nonzero"/><path d="m14 86.8c-2.3-3.1-4.4-6.5-6.3-10-2.7-4.8-4.7-9.9-6.1-15.2-1.7-6.7-.3-12.9 3.5-18.5 1.3-2 2.9-3.8 4.4-5.7 4.1-5.1 11.2-6.4 16.6-2.8 4.4 2.9 8.6 6.2 12.5 9.6 4.7 4.2 5.4 11 1.8 16.3-1.1 1.6-2.3 3.1-3.5 4.6-2.5 3.3-2.4 6.3.4 9.3 6.8 7.5 14.8 13.4 23.7 18.1 3.3 1.8 6.3 1.1 8.6-1.8 1.2-1.5 2.3-3 3.6-4.5 4.2-5.1 11.5-6.2 17-2.4 4 2.8 7.8 5.7 11.6 8.8 5 4.2 6.1 11.2 2.5 16.5-3.2 4.8-6.5 9.6-11.9 12.1-2.3 1.1-4.7 1.8-6.2 2.3-7.3.5-13.6-.2-19.7-1.8-22.1-5.5-39.7-17.1-52.5-34.9" fill-rule="nonzero"/><path d="m101 111.4c-2.1 3.2-4.3 6.4-7.2 8.8 0 0-.1.1-.1.1-.4.3-.8.7-1.2 1-.4.2-.9.4-1.3.6-1.5.6-3 1.1-4.1 1.5-.2.1-.5.2-.6.2-.2 0-.5 0-.7 0-4.8.3-9.2 0-13.3-.6-.5-.1-.9-.2-1.4-.2-.1 0-.1 0-.2 0-.5-.1-1-.2-1.5-.3-.8-.2-1.6-.4-2.5-.6-25.7-6.5-45.2-21.3-58.2-44.5-.4-.7-.8-1.4-1.1-2.1-.4-.7-.7-1.5-1.1-2.2-.3-.6-.5-1.2-.8-1.8-.1-.3-.2-.5-.3-.8-.2-.6-.5-1.1-.7-1.7 0-.1-.1-.1-.1-.2-.2-.6-.3-1.2-.5-1.9-.2-.9-.4-1.8-.5-2.7-.2-1.2-.2-2.3-.1-3.4 0-.2 0-.4 0-.5 0-.2 0-.5.1-.7 0-.1 0-.1 0-.2 0-.2.1-.4.1-.6s0-.3.1-.5c0-.2.1-.4.1-.6.1-.2.1-.5.2-.7.1-.5.2-.9.4-1.4 0-.1.1-.3.1-.4.1-.2.1-.4.2-.5.1-.2.2-.4.3-.6.1-.3.2-.6.4-.9.1-.1.1-.2.2-.4s.2-.4.3-.7c.3-.5.6-1 .9-1.6.2-.4.4-.7.7-1.1 1.3-1.9 2.7-3.6 4.1-5.4 3.9-4.8 10.6-6.1 15.7-2.6.4.3.8.5 1.2.8 4 2.8 8.6 6.8 11.7 9.5.2.2.4.3.5.5.9 1.2 1.6 2.6 1.9 4.1.1.5.2 1 .3 1.5-.4 1.2-.9 2.5-1.7 3.6-1.1 1.6-2.3 3-3.4 4.5-.1.1-.2.2-.3.3-.5.7-.8 1.3-1.1 2-.5 1.4-.6 2.7-.1 4-.1.2-.2.5-.2.7-.6 2 0 4 1.9 6 6.4 7.1 14 12.6 22.4 17.1 3.1 1.7 5.9 1 8.1-1.7 1.1-1.4 2.2-2.9 3.4-4.3 3.6-4.3 9.5-5.6 14.4-3.2.3.1.5.3.8.4.3.2.5.3.8.5 3.7 2.6 7.4 5.4 10.9 8.3.1.1.3.2.4.4.1.1.2.2.3.2l.3.3c.7.7 1.3 1.5 1.8 2.3.1.1.2.3.2.5.1.1.2.3.2.4.2.4.3.8.5 1.2 0 .1.1.2.1.3.1.2.1.3.1.5.1.2.1.5.2.7v.1c.1.2.1.5.1.7v.4.5c.1 2.4-.6 4.9-2.1 7.1z" fill-rule="nonzero"/><path d="m101 111.4c-2.1 3.1-4.1 6.6-7.2 8.8 0 0-.1.1-.1.1-.8.6-1.7 1.1-2.5 1.5-1.3.6-2.7 1.1-4.1 1.5-.4.1-.9.2-1.3.3-.8.1-1.6.2-2.4.2-3.6.1-7.3-.3-10.9-.9-.5-.1-.9-.2-1.4-.2-.1 0-.1 0-.2 0-.5-.1-1-.2-1.5-.3-.8-.2-1.6-.4-2.5-.6-25.7-6.5-45.2-21.3-58.2-44.5-.4-.7-.8-1.4-1.1-2.1-.4-.7-.7-1.5-1.1-2.2-.3-.6-.5-1.2-.8-1.8-.1-.3-.2-.5-.3-.8-.2-.6-.5-1.1-.7-1.7 0-.1-.1-.1-.1-.2-.2-.6-.3-1.2-.5-1.9-.2-.9-.4-1.8-.5-2.7-.2-1.2-.2-2.3-.1-3.4 0-.2 0-.4 0-.5 0-.2 0-.5.1-.7 0-.1 0-.1 0-.2 0-.2.1-.4.1-.6s0-.3.1-.5c0-.2.1-.4.1-.6.1-.2.1-.5.2-.7.1-.5.2-.9.4-1.4 0-.1.1-.3.1-.4.1-.2.1-.4.2-.5l.3-.6c.1-.3.2-.6.4-.9.1-.1.1-.2.2-.4s.2-.4.3-.7c.3-.5.6-1 .9-1.6.2-.4.4-.7.7-1.1 1.3-1.9 2.7-3.6 4.1-5.4 3.9-4.8 10.6-6.1 15.7-2.6.4.3.8.5 1.2.8 4 2.8 8.6 6.8 11.7 9.5-.3 1-.8 1.9-1.4 2.8-1 1.5-2.2 2.9-3.3 4.3-.6.7-1 1.4-1.3 2.1-.9 2.3-.4 1.4 1.6 3.6.3.4.7.7 1 1.1.2.2.4.4.6.7.1.1.2.2.2.3-.5.7-1 1.2-1.4 1.8-.1.1-.2.3-.3.4s-.2.3-.3.4c-.2.3-.4.7-.5 1.1-.8 1.9-.5 1.6.8 2.8l.8.8c6.4 7.1 15 14.7 23.4 19.2 3.1 1.7 4.9 3.1 7.1.3 1.1-1.4 2.2-2.9 3.4-4.3 3.6-4.3 10.4-4.8 15.4-2.2.3.1.5.3.8.4.3.2.5.3.8.5 3.7 2.6 7.4 5.4 10.9 8.3.1.1.3.2.4.4.1.1.2.2.3.2.1.1.2.2.3.3.7.7 1.3 1.5 1.8 2.3.1.1.2.3.2.5.1.1.2.3.2.4.2.4.3.8.5 1.2 0 .1.1.2.1.3.1.2.1.3.1.5.1.2.1.5.2.7v.1c.1.2.1.5.1.7v.4.5c.4 2.4-.3 4.9-1.8 7.1z" fill-rule="nonzero"/><path d="m101.5 99.1c-.3 1.1-.8 2.1-1.5 3.1-2.1 3.2-4.2 6.6-7.3 8.9-3 2.2-6.7 3.4-10.4 3.5-4 .1-8.2-.4-12.2-1.1-1.4-.3-2.8-.6-4.1-.9-25.7-6.5-45.2-21.3-58.2-44.5-1.6-2.8-2.9-5.8-4.1-8.8v-.1c0-.2.1-.4.1-.6s0-.3.1-.5c0-.2.1-.4.1-.6.1-.2.1-.5.2-.7.1-.5.2-.9.4-1.4 0-.1.1-.3.1-.4.1-.2.1-.4.2-.5.1-.2.2-.4.3-.6.1-.3.2-.6.4-.9.1-.1.1-.2.2-.4s.2-.4.3-.7c.3-.5.6-1 .9-1.6.2-.4.4-.7.7-1.1 1.3-1.9 2.7-3.6 4.1-5.4 3.9-4.8 10.6-6.1 15.7-2.6.4.3.8.5 1.2.8 4 2.8 8.6 6.8 11.7 9.5.2.2.4.3.5.5 1.3 1.2 2.3 2.1 2.6 2.5-.2.6-.4 1.1-.7 1.6-1.6 3.1-4.3 5.3-5.3 7.7-.3.8-.5 1.3-.5 1.6 0 .4.3.5.6.7.1.1.2.1.3.2-.5.7-1 1.2-1.4 1.8-.1.1-.2.3-.3.4s-.2.3-.3.4c-.2.3-.4.7-.5 1.1-.8 1.9-.5 1.6.8 2.8l.8.8c6.4 7.1 15 14.7 23.4 19.2 3.1 1.7 4.9 3.1 7.1.3 1.1-1.4 2.2-2.9 3.4-4.3 3.6-4.3 10.4-4.8 15.4-2.2.3.1.5.3.8.4.3.2.5.3.8.5 3.7 2.6 7.4 5.4 10.9 8.3.1.1.3.2.4.4.1.1.2.2.3.2.1.1.2.2.3.3.6.7 1.2 1.5 1.7 2.4z" fill-rule="nonzero"/><g stroke-linecap="round" stroke-linejoin="round" stroke-width="2.5987"><path d="m33.6 40c.1 0 .1.1.2.1"/><path d="m13.5 86.1c-2.1-2.9-4-6-5.8-9.3-2.7-4.8-4.7-9.9-6.1-15.2-1.7-6.7-.3-12.9 3.5-18.5 1.3-2 2.9-3.8 4.4-5.7 4.1-5.1 11.2-6.4 16.6-2.8.9.6 1.7 1.2 2.5 1.8"/><path d="m48.6 115.7c-10.7-5.1-21.8-13.1-31.3-24.6"/><path d="m38.7 44.3c4.7 4.2 5.4 11 1.8 16.3-1.1 1.6-2.3 3.1-3.5 4.6-2.5 3.3-2.4 6.3.4 9.3 6.8 7.5 14.8 13.4 23.7 18.1 3.3 1.8 6.3 1.1 8.6-1.8 1.2-1.5 2.3-3 3.6-4.5 4.2-5.1 11.5-6.2 17-2.4 4 2.8 7.8 5.7 11.6 8.8 5 4.2 6.1 11.2 2.5 16.5-4.7 7-8.6 12.3-18.2 14.1-6.8 1.2-18.5.2-31.3-4.8"/><path d="m23.5 47.6-13.5-10.8"/><path d="m31.6 54.1-2.7-2.1"/><path d="m95.2 103.3-21.6-17.2"/><path d="m80.7.9h-.3c-4.7 0-8.5 3.6-8.8 8.2"/><path d="m97.9 56.6h39.8c4.9 0 8.8-4 8.8-8.8v-38c0-4.9-4-8.8-8.8-8.8h-47.2"/><path d="m71.6 19v43.6c0 2.2 2.5 3.3 4.2 2l6.6-8h3.8"/></g><circle cx="91.9" cy="29.6" fill-rule="nonzero" r="5"/><circle cx="109" cy="29.6" fill-rule="nonzero" r="5"/><path d="m129.5 33.3c-.9.8-2 1.3-3.3 1.3-2.8 0-5-2.2-5-5s2.2-5 5-5 5 2.2 5 5c0 1.5-.6 2.8-1.7 3.7" fill-rule="nonzero"/><circle cx="92.9" cy="31.6" fill-rule="nonzero" r="4"/><circle cx="110.5" cy="31.6" fill-rule="nonzero" r="4"/><circle cx="127.2" cy="31.6" fill-rule="nonzero" r="4"/><path d="m92.3 24.6c2.6.2 4.6 2.4 4.6 5 0 2.8-2.2 5-5 5s-5-2.2-5-5c0-1 .3-2 .9-2.8" stroke-linecap="round" stroke-linejoin="round" stroke-width="2.5987"/><circle cx="109" cy="29.6" r="5" stroke-linecap="round" stroke-linejoin="round" stroke-width="2.5987"/><path d="m127 34.5c-.3 0-.6.1-.9.1-2.8 0-5-2.2-5-5s2.2-5 5-5 5 2.2 5 5c0 .5-.1 1-.2 1.4" stroke-linecap="round" stroke-linejoin="round" stroke-width="2.5987"/></g></svg>

<?xml version="1.0" encoding="UTF-8"?>
<svg width="149px" height="127px" viewBox="0 0 149 127" version="1.1" xmlns="http://www.w3.org/2000/svg" xmlns:xlink="http://www.w3.org/1999/xlink">
    <!-- Generator: Sketch 51.2 (57519) - http://www.bohemiancoding.com/sketch -->
    <title>Contact</title>
    <desc>Created with Sketch.</desc>
    <defs></defs>
    <g id="Page-1" stroke="none" stroke-width="1" fill="none" fill-rule="evenodd">
        <g id="Contact" transform="translate(1.000000, 1.000000)">
            <path d="M96.2,56.6 L137.7,56.6 C142.6,56.6 146.5,52.6 146.5,47.8 L146.5,9.8 C146.5,4.9 142.5,1 137.7,1 L80.5,1 C75.6,1 71.7,5 71.7,9.8 L71.7,62.6 C71.7,64.8 74.2,65.9 75.9,64.6 L82.5,56.6 L83,56.6" id="Shape" class="fill-neutral" fill-rule="nonzero"></path>
            <path d="M146.5,12.9 L146.5,48.8 C146.5,53.4 142.8,57.1 138.2,57.1 L82,57.1 L75.8,64.6 C74.2,65.9 75.9,64.8 75.9,62.7 L75.9,12.8 C75.9,8.2 79.6,4.5 84.2,4.5 L138.2,4.5 C140.2,4.5 142.1,5.2 143.5,6.4 C145.3,8 146.5,10.3 146.5,12.9 Z" id="Shape" class="fill-primary-500" fill-rule="nonzero"></path>
            <path d="M143.5,6.9 L143.5,42.8 C143.5,47.4 139.8,51.1 135.2,51.1 L79,51.1 L75.9,54.9 L75.9,12.9 C75.9,8.3 79.6,4.6 84.2,4.6 L138.2,4.6 C140.2,4.6 142.1,5.3 143.5,6.5 C143.5,6.6 143.5,6.7 143.5,6.9 Z" id="Shape" class="fill-primary-300" fill-rule="nonzero"></path>
            <path d="M14,86.8 C11.7,83.7 9.6,80.3 7.7,76.8 C5,72 3,66.9 1.6,61.6 C-0.1,54.9 1.3,48.7 5.1,43.1 C6.4,41.1 8,39.3 9.5,37.4 C13.6,32.3 20.7,31 26.1,34.6 C30.5,37.5 34.7,40.8 38.6,44.2 C43.3,48.4 44,55.2 40.4,60.5 C39.3,62.1 38.1,63.6 36.9,65.1 C34.4,68.4 34.5,71.4 37.3,74.4 C44.1,81.9 52.1,87.8 61,92.5 C64.3,94.3 67.3,93.6 69.6,90.7 C70.8,89.2 71.9,87.7 73.2,86.2 C77.4,81.1 84.7,80 90.2,83.8 C94.2,86.6 98,89.5 101.8,92.6 C106.8,96.8 107.9,103.8 104.3,109.1 C101.1,113.9 97.8,118.7 92.4,121.2 C90.1,122.3 87.7,123 86.2,123.5 C78.9,124 72.6,123.3 66.5,121.7 C44.4,116.2 26.8,104.6 14,86.8" id="Shape" class="fill-neutral" fill-rule="nonzero"></path>
            <path d="M101,111.4 C98.9,114.6 96.7,117.8 93.8,120.2 C93.8,120.2 93.7,120.3 93.7,120.3 C93.3,120.6 92.9,121 92.5,121.3 C92.5,121.3 92.5,121.3 92.5,121.3 C92.1,121.5 91.6,121.7 91.2,121.9 C89.7,122.5 88.2,123 87.1,123.4 C86.9,123.5 86.6,123.6 86.5,123.6 C86.3,123.6 86,123.6 85.8,123.6 C81,123.9 76.6,123.6 72.5,123 C72,122.9 71.6,122.8 71.1,122.8 C71,122.8 71,122.8 70.9,122.8 C70.4,122.7 69.9,122.6 69.4,122.5 C68.6,122.3 67.8,122.1 66.9,121.9 C41.2,115.4 21.7,100.6 8.7,77.4 C8.3,76.7 7.9,76 7.6,75.3 C7.2,74.6 6.9,73.8 6.5,73.1 C6.2,72.5 6,71.9 5.7,71.3 C5.6,71 5.5,70.8 5.4,70.5 C5.2,69.9 4.9,69.4 4.7,68.8 C4.7,68.7 4.6,68.7 4.6,68.6 C4.4,68 4.3,67.4 4.1,66.7 C3.9,65.8 3.7,64.9 3.6,64 C3.4,62.8 3.4,61.7 3.5,60.6 C3.5,60.4 3.5,60.2 3.5,60.1 C3.5,59.9 3.5,59.6 3.6,59.4 C3.6,59.3 3.6,59.3 3.6,59.2 C3.6,59 3.7,58.8 3.7,58.6 C3.7,58.4 3.7,58.3 3.8,58.1 C3.8,57.9 3.9,57.7 3.9,57.5 C4,57.3 4,57 4.1,56.8 C4.2,56.3 4.3,55.9 4.5,55.4 C4.5,55.3 4.6,55.1 4.6,55 C4.7,54.8 4.7,54.6 4.8,54.5 C4.9,54.3 5,54.1 5.1,53.9 C5.2,53.6 5.3,53.3 5.5,53 C5.6,52.9 5.6,52.8 5.7,52.6 C5.8,52.4 5.9,52.2 6,51.9 C6.3,51.4 6.6,50.9 6.9,50.3 C7.1,49.9 7.3,49.6 7.6,49.2 C8.9,47.3 10.3,45.6 11.7,43.8 C15.6,39 22.3,37.7 27.4,41.2 C27.8,41.5 28.2,41.7 28.6,42 C32.6,44.8 37.2,48.8 40.3,51.5 C40.5,51.7 40.7,51.8 40.8,52 C41.7,53.2 42.4,54.6 42.7,56.1 C42.8,56.6 42.9,57.1 43,57.6 C42.6,58.8 42.1,60.1 41.3,61.2 C40.2,62.8 39,64.2 37.9,65.7 C37.8,65.8 37.7,65.9 37.6,66 C37.6,66 37.6,66 37.6,66 C37.1,66.7 36.8,67.3 36.5,68 C36,69.4 35.9,70.7 36.4,72 C36.3,72.2 36.2,72.5 36.2,72.7 C35.6,74.7 36.2,76.7 38.1,78.7 C44.5,85.8 52.1,91.3 60.5,95.8 C63.6,97.5 66.4,96.8 68.6,94.1 C69.7,92.7 70.8,91.2 72,89.8 C75.6,85.5 81.5,84.2 86.4,86.6 C86.7,86.7 86.9,86.9 87.2,87 C87.5,87.2 87.7,87.3 88,87.5 C91.7,90.1 95.4,92.9 98.9,95.8 C99,95.9 99.2,96 99.3,96.2 C99.4,96.3 99.5,96.4 99.6,96.4 C99.7,96.5 99.8,96.6 99.9,96.7 C100.6,97.4 101.2,98.2 101.7,99 C101.8,99.1 101.9,99.3 101.9,99.5 C102,99.6 102.1,99.8 102.1,99.9 C102.3,100.3 102.4,100.7 102.6,101.1 C102.6,101.2 102.7,101.3 102.7,101.4 C102.8,101.6 102.8,101.7 102.8,101.9 C102.9,102.1 102.9,102.4 103,102.6 L103,102.7 C103.1,102.9 103.1,103.2 103.1,103.4 C103.1,103.5 103.1,103.7 103.1,103.8 C103.1,104 103.1,104.1 103.1,104.3 C103.2,106.7 102.5,109.2 101,111.4 Z" id="Shape" class="fill-primary-400" fill-rule="nonzero"></path>
            <path d="M101,111.4 C98.9,114.5 96.9,118 93.8,120.2 C93.8,120.2 93.7,120.3 93.7,120.3 C92.9,120.9 92,121.4 91.2,121.8 C89.9,122.4 88.5,122.9 87.1,123.3 C86.7,123.4 86.2,123.5 85.8,123.6 C85,123.7 84.2,123.8 83.4,123.8 C79.8,123.9 76.1,123.5 72.5,122.9 C72,122.8 71.6,122.7 71.1,122.7 C71,122.7 71,122.7 70.9,122.7 C70.4,122.6 69.9,122.5 69.4,122.4 C68.6,122.2 67.8,122 66.9,121.8 C41.2,115.3 21.7,100.5 8.7,77.3 C8.3,76.6 7.9,75.9 7.6,75.2 C7.2,74.5 6.9,73.7 6.5,73 C6.2,72.4 6,71.8 5.7,71.2 C5.6,70.9 5.5,70.7 5.4,70.4 C5.2,69.8 4.9,69.3 4.7,68.7 C4.7,68.6 4.6,68.6 4.6,68.5 C4.4,67.9 4.3,67.3 4.1,66.6 C3.9,65.7 3.7,64.8 3.6,63.9 C3.4,62.7 3.4,61.6 3.5,60.5 C3.5,60.3 3.5,60.1 3.5,60 C3.5,59.8 3.5,59.5 3.6,59.3 C3.6,59.2 3.6,59.2 3.6,59.1 C3.6,58.9 3.7,58.7 3.7,58.5 C3.7,58.3 3.7,58.2 3.8,58 C3.8,57.8 3.9,57.6 3.9,57.4 C4,57.2 4,56.9 4.1,56.7 C4.2,56.2 4.3,55.8 4.5,55.3 C4.5,55.2 4.6,55 4.6,54.9 C4.7,54.7 4.7,54.5 4.8,54.4 C4.9,54.2 5,54 5.1,53.8 C5.2,53.5 5.3,53.2 5.5,52.9 C5.6,52.8 5.6,52.7 5.7,52.5 C5.8,52.3 5.9,52.1 6,51.8 C6.3,51.3 6.6,50.8 6.9,50.2 C7.1,49.8 7.3,49.5 7.6,49.1 C8.9,47.2 10.3,45.5 11.7,43.7 C15.6,38.9 22.3,37.6 27.4,41.1 C27.8,41.4 28.2,41.6 28.6,41.9 C32.6,44.7 37.2,48.7 40.3,51.4 C40,52.4 39.5,53.3 38.9,54.2 C37.9,55.7 36.7,57.1 35.6,58.5 C35,59.2 34.6,59.9 34.3,60.6 C33.4,62.9 33.9,62 35.9,64.2 C36.2,64.6 36.6,64.9 36.9,65.3 C37.1,65.5 37.3,65.7 37.5,66 C37.6,66.1 37.7,66.2 37.7,66.3 C37.2,67 36.7,67.5 36.3,68.1 C36.2,68.2 36.1,68.4 36,68.5 C35.9,68.6 35.8,68.8 35.7,68.9 C35.5,69.2 35.3,69.6 35.2,70 C34.4,71.9 34.7,71.6 36,72.8 C36.2,73 36.5,73.3 36.8,73.6 C43.2,80.7 51.8,88.3 60.2,92.8 C63.3,94.5 65.1,95.9 67.3,93.1 C68.4,91.7 69.5,90.2 70.7,88.8 C74.3,84.5 81.1,84 86.1,86.6 C86.4,86.7 86.6,86.9 86.9,87 C87.2,87.2 87.4,87.3 87.7,87.5 C91.4,90.1 95.1,92.9 98.6,95.8 C98.7,95.9 98.9,96 99,96.2 C99.1,96.3 99.2,96.4 99.3,96.4 C99.4,96.5 99.5,96.6 99.6,96.7 C100.3,97.4 100.9,98.2 101.4,99 C101.5,99.1 101.6,99.3 101.6,99.5 C101.7,99.6 101.8,99.8 101.8,99.9 C102,100.3 102.1,100.7 102.3,101.1 C102.3,101.2 102.4,101.3 102.4,101.4 C102.5,101.6 102.5,101.7 102.5,101.9 C102.6,102.1 102.6,102.4 102.7,102.6 L102.7,102.7 C102.8,102.9 102.8,103.2 102.8,103.4 C102.8,103.5 102.8,103.7 102.8,103.8 C102.8,104 102.8,104.1 102.8,104.3 C103.2,106.7 102.5,109.2 101,111.4 Z" id="Shape" class="fill-primary-200" fill-rule="nonzero"></path>
            <path d="M101.5,99.1 C101.2,100.2 100.7,101.2 100,102.2 C97.9,105.4 95.8,108.8 92.7,111.1 C89.7,113.3 86,114.5 82.3,114.6 C78.3,114.7 74.1,114.2 70.1,113.5 C68.7,113.2 67.3,112.9 66,112.6 C40.3,106.1 20.8,91.3 7.8,68.1 C6.2,65.3 4.9,62.3 3.7,59.3 C3.7,59.3 3.7,59.2 3.7,59.2 C3.7,59 3.8,58.8 3.8,58.6 C3.8,58.4 3.8,58.3 3.9,58.1 C3.9,57.9 4,57.7 4,57.5 C4.1,57.3 4.1,57 4.2,56.8 C4.3,56.3 4.4,55.9 4.6,55.4 C4.6,55.3 4.7,55.1 4.7,55 C4.8,54.8 4.8,54.6 4.9,54.5 C5,54.3 5.1,54.1 5.2,53.9 C5.3,53.6 5.4,53.3 5.6,53 C5.7,52.9 5.7,52.8 5.8,52.6 C5.9,52.4 6,52.2 6.1,51.9 C6.4,51.4 6.7,50.9 7,50.3 C7.2,49.9 7.4,49.6 7.7,49.2 C9,47.3 10.4,45.6 11.8,43.8 C15.7,39 22.4,37.7 27.5,41.2 C27.9,41.5 28.3,41.7 28.7,42 C32.7,44.8 37.3,48.8 40.4,51.5 C40.6,51.7 40.8,51.8 40.9,52 C42.2,53.2 43.2,54.1 43.5,54.5 C43.3,55.1 43.1,55.6 42.8,56.1 C41.2,59.2 38.5,61.4 37.5,63.8 C37.2,64.6 37,65.1 37,65.4 C37,65.8 37.3,65.9 37.6,66.1 C37.7,66.2 37.8,66.2 37.9,66.3 C37.4,67 36.9,67.5 36.5,68.1 C36.4,68.2 36.3,68.4 36.2,68.5 C36.1,68.6 36,68.8 35.9,68.9 C35.7,69.2 35.5,69.6 35.4,70 C34.6,71.9 34.9,71.6 36.2,72.8 C36.4,73 36.7,73.3 37,73.6 C43.4,80.7 52,88.3 60.4,92.8 C63.5,94.5 65.3,95.9 67.5,93.1 C68.6,91.7 69.7,90.2 70.9,88.8 C74.5,84.5 81.3,84 86.3,86.6 C86.6,86.7 86.8,86.9 87.1,87 C87.4,87.2 87.6,87.3 87.9,87.5 C91.6,90.1 95.3,92.9 98.8,95.8 C98.9,95.9 99.1,96 99.2,96.2 C99.3,96.3 99.4,96.4 99.5,96.4 C99.6,96.5 99.7,96.6 99.8,96.7 C100.4,97.4 101,98.2 101.5,99.1 Z" id="Shape" class="fill-primary-100" fill-rule="nonzero"></path>
            <path d="M33.6,40 C33.7,40 33.7,40.1 33.8,40.1" id="Shape" class="stroke-primary" stroke-width="2.5987" stroke-linecap="round" stroke-linejoin="round"></path>
            <path d="M13.5,86.1 C11.4,83.2 9.5,80.1 7.7,76.8 C5,72 3,66.9 1.6,61.6 C-0.1,54.9 1.3,48.7 5.1,43.1 C6.4,41.1 8,39.3 9.5,37.4 C13.6,32.3 20.7,31 26.1,34.6 C27,35.2 27.8,35.8 28.6,36.4" id="Shape" class="stroke-primary" stroke-width="2.5987" stroke-linecap="round" stroke-linejoin="round"></path>
            <path d="M48.6,115.7 C37.9,110.6 26.8,102.6 17.3,91.1" id="Shape" class="stroke-primary" stroke-width="2.5987" stroke-linecap="round" stroke-linejoin="round"></path>
            <path d="M38.7,44.3 C43.4,48.5 44.1,55.3 40.5,60.6 C39.4,62.2 38.2,63.7 37,65.2 C34.5,68.5 34.6,71.5 37.4,74.5 C44.2,82 52.2,87.9 61.1,92.6 C64.4,94.4 67.4,93.7 69.7,90.8 C70.9,89.3 72,87.8 73.3,86.3 C77.5,81.2 84.8,80.1 90.3,83.9 C94.3,86.7 98.1,89.6 101.9,92.7 C106.9,96.9 108,103.9 104.4,109.2 C99.7,116.2 95.8,121.5 86.2,123.3 C79.4,124.5 67.7,123.5 54.9,118.5" id="Shape" class="stroke-primary" stroke-width="2.5987" stroke-linecap="round" stroke-linejoin="round"></path>
            <path d="M23.5,47.6 L10,36.8" id="Shape" class="stroke-primary" stroke-width="2.5987" stroke-linecap="round" stroke-linejoin="round"></path>
            <path d="M31.6,54.1 L28.9,52" id="Shape" class="stroke-primary" stroke-width="2.5987" stroke-linecap="round" stroke-linejoin="round"></path>
            <path d="M95.2,103.3 L73.6,86.1" id="Shape" class="stroke-primary" stroke-width="2.5987" stroke-linecap="round" stroke-linejoin="round"></path>
            <path d="M80.7,0.9 L80.4,0.9 C75.7,0.9 71.9,4.5 71.6,9.1" id="Shape" class="stroke-primary" stroke-width="2.5987" stroke-linecap="round" stroke-linejoin="round"></path>
            <path d="M97.9,56.6 L137.7,56.6 C142.6,56.6 146.5,52.6 146.5,47.8 L146.5,9.8 C146.5,4.9 142.5,1 137.7,1 L90.5,1" id="Shape" class="stroke-primary" stroke-width="2.5987" stroke-linecap="round" stroke-linejoin="round"></path>
            <path d="M71.6,19 L71.6,62.6 C71.6,64.8 74.1,65.9 75.8,64.6 L82.4,56.6 L86.2,56.6" id="Shape" class="stroke-primary" stroke-width="2.5987" stroke-linecap="round" stroke-linejoin="round"></path>
            <circle id="Oval" class="fill-neutral" fill-rule="nonzero" cx="91.9" cy="29.6" r="5"></circle>
            <circle id="Oval" class="fill-neutral" fill-rule="nonzero" cx="109" cy="29.6" r="5"></circle>
            <path d="M129.5,33.3 C128.6,34.1 127.5,34.6 126.2,34.6 C123.4,34.6 121.2,32.4 121.2,29.6 C121.2,26.8 123.4,24.6 126.2,24.6 C129,24.6 131.2,26.8 131.2,29.6 C131.2,31.1 130.6,32.4 129.5,33.3" id="Shape" class="fill-neutral" fill-rule="nonzero"></path>
            <circle id="Oval" class="fill-primary-300" fill-rule="nonzero" cx="92.9" cy="31.6" r="4"></circle>
            <circle id="Oval" class="fill-primary-300" fill-rule="nonzero" cx="110.5" cy="31.6" r="4"></circle>
            <circle id="Oval" class="fill-primary-300" fill-rule="nonzero" cx="127.2" cy="31.6" r="4"></circle>
            <path d="M92.3,24.6 C94.9,24.8 96.9,27 96.9,29.6 C96.9,32.4 94.7,34.6 91.9,34.6 C89.1,34.6 86.9,32.4 86.9,29.6 C86.9,28.6 87.2,27.6 87.8,26.8" id="Shape" class="stroke-primary" stroke-width="2.5987" stroke-linecap="round" stroke-linejoin="round"></path>
            <circle id="Oval" class="stroke-primary" stroke-width="2.5987" stroke-linecap="round" stroke-linejoin="round" cx="109" cy="29.6" r="5"></circle>
            <path d="M127,34.5 C126.7,34.5 126.4,34.6 126.1,34.6 C123.3,34.6 121.1,32.4 121.1,29.6 C121.1,26.8 123.3,24.6 126.1,24.6 C128.9,24.6 131.1,26.8 131.1,29.6 C131.1,30.1 131,30.6 130.9,31" id="Shape" class="stroke-primary" stroke-width="2.5987" stroke-linecap="round" stroke-linejoin="round"></path>
        </g>
    </g>
</svg>
